X:1
T: Star Sky
C: Thomas Bergersen
L:1/4
Q: 120
M:4/4
K:D
e B B B/2 A/2 | B2 G/2A/2B/2d/2 | e B B B/2 A/2 | G2 G/2A/2B/2d/2 | A A A A/2 G/2 | A2 F/2G/2A/2d/2 | B/2 A/2 B g B | A/2 G/2 A f d |
e B B B/2 A/2 | B2 G/2A/2B/2d/2 | e A A G/2 B/2 | A2  F/2 G/2 A/2 B/2 | G/2 F/2 E2 G/2 F/2 | E2 E/2F/2G/2A/2| F/2 E/2 D2 F/2 E/2 | D D/2E/2 F/2G/2 F/2D/2 | E3 E/2 F/2 | G G F/2 E/2 D | E3
